X:1
T:Marco Polo
M:4/4
L:1/4
K:G
 B,| E E G F/2E/2| D/2D/2 E B, z/2 B,/2| EE/2-F/2 G A| B3| B/2B/2|\
 c c B3/2 A/2| B G F/2 z/2 B,/2B,/2| EE/2-F/2 G F| G3| B,| E E GF/2-E/2|\
D/2-D/2 E B, z/2 B,/2| EE/2-F/2 G A| B3| B/2B/2| c c B3/2 A/2| B G F/2 z/2 B,/2B,/2|\
 EE/2-F/2 G F| G3| E2 D2| C2 B,3/2 B,/2| G G F D| E4| E2 D2| C2 B,3/2 B,/2|\
 G G F D| E3||
